<?xml version="1.0" encoding="UTF-8"?>
<map version="1.10" tiledversion="1.12.1" orientation="orthogonal" renderorder="right-down" width="54" height="32" tilewidth="32" tileheight="32" infinite="0" nextlayerid="5" nextobjectid="38">
 <editorsettings>
  <export target="passagem-mapa.lua" format="lua"/>
 </editorsettings>
 <imagelayer id="2" name="imagem_mapa">
  <image source="passagem-mapa.png" width="1315" height="1196"/>
 </imagelayer>
 <objectgroup id="3" name="colisoes">
  <object id="2" x="-1.33333" y="180" width="36" height="840"/>
  <object id="3" x="34.6667" y="290.667" width="96" height="56"/>
  <object id="4" x="120" y="346.667" width="49.3333" height="114.667"/>
  <object id="5" x="173.333" y="388" width="94.6667" height="26.6667"/>
  <object id="6" x="266.667" y="409.333" width="30.6667" height="29.3333"/>
  <object id="7" x="294.667" y="442.667" width="42.6667" height="74.6667"/>
  <object id="8" x="43.3332" y="869.333" width="96" height="56"/>
  <object id="9" x="128.666" y="737.333" width="49.3333" height="132"/>
  <object id="10" x="181.999" y="766.667" width="81.3334" height="25.3334"/>
  <object id="11" x="254" y="742.667" width="30.6667" height="29.3333"/>
  <object id="12" x="304.667" y="614.667" width="42.6667" height="74.6667"/>
  <object id="13" x="277.333" y="721.333" width="24" height="17.3333"/>
  <object id="14" x="296" y="692" width="20" height="26.6667"/>
  <object id="15" x="349.333" y="618.667" width="704" height="33.3333"/>
  <object id="16" x="338.667" y="492" width="712" height="26.6667"/>
  <object id="17" x="754" y="251" width="49" height="241"/>
  <object id="18" x="796" y="73" width="156" height="190"/>
  <object id="19" x="954" y="48" width="86" height="37"/>
  <object id="20" x="1019" y="86" width="54" height="98"/>
  <object id="21" x="1078" y="131" width="87" height="153"/>
  <object id="22" x="1130" y="284" width="69" height="53"/>
  <object id="23" x="1179" y="320" width="76" height="69"/>
  <object id="24" x="1258" y="391" width="49" height="294"/>
  <object id="25" x="800" y="665" width="139" height="119"/>
  <object id="26" x="908" y="984" width="349" height="38"/>
  <object id="27" x="1155" y="679" width="155" height="61"/>
  <object id="31" x="1112" y="844" width="44" height="136"/>
  <object id="32" x="1280" y="747" width="29" height="272"/>
  <object id="33" x="1168" y="928" width="105" height="67"/>
  <object id="34" x="1242" y="902" width="31" height="21"/>
  <object id="35" x="883" y="820" width="49" height="112"/>
  <object id="36" x="846" y="791" width="35" height="159"/>
  <object id="37" x="893" y="931" width="61" height="45"/>
 </objectgroup>
 <objectgroup id="4" name="portais">
  <object id="29" x="952" y="98" width="69" height="98">
   <properties>
    <property name="destino" value="fase2"/>
    <property name="spawnX" type="int" value="280"/>
    <property name="spawnY" type="int" value="200"/>
   </properties>
  </object>
 </objectgroup>
</map>
