<?xml version="1.0" encoding="UTF-8"?>
<map version="1.10" tiledversion="1.12.1" orientation="orthogonal" renderorder="right-down" width="54" height="32" tilewidth="25" tileheight="38" infinite="0" nextlayerid="5" nextobjectid="59">
 <editorsettings>
  <export target="Mapa-Inicio.lua" format="lua"/>
 </editorsettings>
 <imagelayer id="2" name="imagem_mapa">
  <image source="Mapa-Inicio.png" width="1316" height="1195"/>
 </imagelayer>
 <objectgroup id="3" name="colisoes">
  <object id="2" x="420" y="0" width="16" height="72"/>
  <object id="3" x="436" y="1.33333" width="461.333" height="66.6667"/>
  <object id="4" x="202.667" y="62.6667" width="304" height="145.333"/>
  <object id="5" x="796" y="69.3333" width="296" height="133.333"/>
  <object id="6" x="1082.67" y="216" width="89.3333" height="114.667"/>
  <object id="7" x="1153.33" y="334.667" width="62.6667" height="105.333"/>
  <object id="8" x="1180" y="440" width="24" height="117.333"/>
  <object id="9" x="1137.33" y="529.333" width="36" height="285.333"/>
  <object id="10" x="785.333" y="781.333" width="352" height="110.667"/>
  <object id="11" x="136" y="216" width="74.6667" height="144"/>
  <object id="12" x="81.3333" y="365.333" width="57.3333" height="69.3333"/>
  <object id="13" x="78.6667" y="438.667" width="38.6667" height="134.667"/>
  <object id="14" x="121.333" y="536" width="44" height="320"/>
  <object id="15" x="154.667" y="790.667" width="326.667" height="78.6667"/>
  <object id="16" x="484" y="846.667" width="54.6667" height="110.667"/>
  <object id="17" x="728" y="838.667" width="58.6667" height="113.333"/>
  <object id="19" x="404" y="952.667" width="79.3333" height="34"/>
  <object id="20" x="406" y="984" width="60" height="20"/>
  <object id="21" x="406" y="1010" width="37.3333" height="36"/>
  <object id="22" x="405.333" y="1049.33" width="35.3333" height="51.3333"/>
  <object id="23" x="422" y="1094.67" width="30" height="52"/>
  <object id="24" x="451.333" y="1109.33" width="81.3333" height="79.3333"/>
  <object id="31" x="787.667" y="944.667" width="79.3333" height="34"/>
  <object id="32" x="805" y="976" width="60" height="20"/>
  <object id="33" x="827.667" y="1002" width="37.3333" height="36"/>
  <object id="34" x="830.334" y="1041.33" width="35.3333" height="51.3333"/>
  <object id="35" x="819" y="1086.67" width="30" height="52"/>
  <object id="36" x="738.334" y="1108" width="81.3333" height="72.6667"/>
  <object id="37" x="538.667" y="1153.33" width="198.667" height="44.6667"/>
  <object id="38" x="622.667" y="557.333" width="58.6667" height="58"/>
  <object id="39" x="724.667" y="552.667" width="24.6667" height="40.6667"/>
  <object id="40" x="179" y="558" width="79" height="78"/>
  <object id="41" x="224" y="665" width="65" height="65"/>
  <object id="42" x="306" y="637" width="18" height="73"/>
  <object id="43" x="357" y="684" width="24" height="29"/>
  <object id="44" x="174" y="740" width="42" height="36"/>
  <object id="45" x="176" y="646" width="18" height="27"/>
  <object id="46" x="225" y="281" width="23" height="40"/>
  <object id="47" x="309" y="294" width="73" height="88"/>
  <object id="48" x="681" y="455" width="80" height="39"/>
  <object id="49" x="761" y="500" width="27" height="19"/>
  <object id="50" x="882" y="689" width="40" height="38"/>
  <object id="53" x="1085" y="736" width="39" height="44"/>
  <object id="54" x="1054" y="367" width="44" height="54"/>
  <object id="55" x="1121" y="447" width="21" height="83"/>
  <object id="56" x="489" y="1020" width="17" height="72"/>
  <object id="57" x="762" y="1023" width="20" height="69"/>
 </objectgroup>
 <objectgroup id="4" name="portais">
  <object id="58" x="543" y="105" width="224" height="113">
   <properties>
    <property name="destino" value="fase1"/>
    <property name="spawnX" type="int" value="650"/>
    <property name="spawnY" type="int" value="900"/>
   </properties>
  </object>
 </objectgroup>
</map>
